img/header-collection/shop-bag.svg

<svg width="60" height="42" viewBox="0 0 60 42" fill="none" xmlns="http://www.w3.org/2000/svg">
<path d="M29.917 7.00026C26.7916 6.9687 24.2072 9.77814 24.2072 13.0611V13.945H21.2021C20.5409 13.945 20 14.5132 20 15.2076V29.318C20 32.4431 22.4342 35 25.4092 35H34.2143C37.1894 35 39.6235 32.4431 39.6235 29.318V15.1761C39.6235 14.4816 39.0826 13.9134 38.4215 13.9134H35.4164V12.8717C35.4464 9.62031 32.9822 7.03183 29.917 7.00026ZM26.6113 12.8401C26.6113 10.9777 28.0538 9.46247 29.8268 9.46247C31.5998 9.46247 33.0423 10.9777 33.0423 12.8401V13.8818H26.6113V12.8401Z" fill="#25394E"/>
</svg>

<svg width="60" height="42" fill="none" xmlns="http://www.w3.org/2000/svg"><path d="M29.917 7c-3.125-.031-5.71 2.778-5.71 6.061v.884h-3.005c-.661 0-1.202.568-1.202 1.263v14.11C20 32.443 22.434 35 25.41 35h8.804c2.975 0 5.41-2.557 5.41-5.682V15.176c0-.694-.541-1.263-1.203-1.263h-3.005v-1.041c.03-3.252-2.434-5.84-5.499-5.872zm-3.306 5.84c0-1.862 1.443-3.378 3.216-3.378 1.773 0 3.215 1.516 3.215 3.378v1.042h-6.43V12.84z" fill="#25394E"/></svg>
